Numix-GalliumOS/24/categories/gnome-settings.svg

<?xml version="1.0" encoding="UTF-8" standalone="no"?>
<svg
   xmlns:dc="http://purl.org/dc/elements/1.1/"
   xmlns:cc="http://creativecommons.org/ns#"
   xmlns:rdf="http://www.w3.org/1999/02/22-rdf-syntax-ns#"
   xmlns:svg="http://www.w3.org/2000/svg"
   xmlns="http://www.w3.org/2000/svg"
   xmlns:sodipodi="http://sodipodi.sourceforge.net/DTD/sodipodi-0.dtd"
   xmlns:inkscape="http://www.inkscape.org/namespaces/inkscape"
   width="24"
   height="24"
   viewBox="0 0 24 24"
   id="svg2"
   version="1.1"
   inkscape:version="0.91 r"
   sodipodi:docname="gtk-preferences.svg">
  <metadata
     id="metadata26">
    <rdf:RDF>
      <cc:Work
         rdf:about="">
        <dc:format>image/svg+xml</dc:format>
        <dc:type
           rdf:resource="http://purl.org/dc/dcmitype/StillImage" />
        <dc:title />
      </cc:Work>
    </rdf:RDF>
  </metadata>
  <defs
     id="defs24" />
  <sodipodi:namedview
     pagecolor="#ffffff"
     bordercolor="#666666"
     borderopacity="1"
     objecttolerance="10"
     gridtolerance="10"
     guidetolerance="10"
     inkscape:pageopacity="0"
     inkscape:pageshadow="2"
     inkscape:window-width="1680"
     inkscape:window-height="1026"
     id="namedview22"
     showgrid="true"
     inkscape:zoom="21.454545"
     inkscape:cx="15.635946"
     inkscape:cy="8.8014225"
     inkscape:window-x="0"
     inkscape:window-y="24"
     inkscape:window-maximized="1"
     inkscape:current-layer="svg2">
    <inkscape:grid
       type="xygrid"
       id="grid4154" />
  </sodipodi:namedview>
  <path
     style="fill:#ec86ab"
     inkscape:connector-curvature="0"
     id="path6"
     d="M 4,4 4,15 5,15 5,4 Z" />
  <path
     style="fill:#ec86ab"
     inkscape:connector-curvature="0"
     id="path8"
     d="M 6,15.5 C 6,16.326446 5.3296548,17 4.4979312,17 3.6703452,17 3,16.326446 3,15.5 3,14.673553 3.6703452,14 4.4979312,14 5.3296548,14 6,14.673553 6,15.5 Z" />
  <path
     style="fill:#ec86ab"
     inkscape:connector-curvature="0"
     id="path10"
     d="m 10,20 0,-14.175781 -1,0 L 9,20 Z" />
  <path
     style="fill:#ec86ab"
     inkscape:connector-curvature="0"
     id="path12"
     d="M 8,5.5041325 C 8,4.6735541 8.6735541,4 9.5000005,4 10.326447,4 11,4.6735541 11,5.5041325 11,6.3305789 10.326447,7 9.5000005,7 8.6735541,7 8,6.3305789 8,5.5041325 Z" />
  <path
     style="fill:#ec86ab"
     inkscape:connector-curvature="0"
     id="path14"
     d="m 14,4 0,10 1,0 0,-10 z" />
  <path
     style="fill:#ec86ab"
     inkscape:connector-curvature="0"
     id="path16"
     d="M 16,14.500001 C 16,15.330579 15.330579,16 14.504132,16 13.673554,16 13,15.330579 13,14.500001 13,13.673554 13.673554,13 14.504132,13 15.330579,13 16,13.673554 16,14.500001 Z" />
  <path
     style="fill:#ec86ab"
     inkscape:connector-curvature="0"
     id="path18"
     d="m 20,20 0,-7.5 -1,0 0,7.5 z" />
  <path
     style="fill:#ec86ab"
     inkscape:connector-curvature="0"
     id="path20"
     d="m 18,12.499999 c 0,-0.830578 0.673553,-1.5 1.499999,-1.5 0.826447,0 1.500001,0.669422 1.500001,1.5 C 21,13.326446 20.326446,14 19.499999,14 18.673553,14 18,13.326446 18,12.499999 Z" />
</svg>

<svg xmlns="http://www.w3.org/2000/svg" viewBox="0 0 24 24">
 <path d="m 4 4 0 11 1 0 0 -11" style="fill:#ec86ab"/>
 <path d="m 6 15.5 c 0 0.826 -0.67 1.5 -1.502 1.5 -0.828 0 -1.498 -0.674 -1.498 -1.5 0 -0.826 0.67 -1.5 1.498 -1.5 0.832 0 1.502 0.674 1.502 1.5" style="fill:#ec86ab"/>
 <path d="m 10 20 0 -14.176 -1 0 l 0 14.176" style="fill:#ec86ab"/>
 <path d="m 8 5.504 c 0 -0.831 0.674 -1.504 1.5 -1.504 0.826 0 1.5 0.674 1.5 1.504 0 0.826 -0.674 1.496 -1.5 1.496 -0.826 0 -1.5 -0.669 -1.5 -1.496" style="fill:#ec86ab"/>
 <path d="m 14 4 0 10 1 0 0 -10 z" style="fill:#ec86ab"/>
 <path d="m 16 14.5 c 0 0.831 -0.669 1.5 -1.496 1.5 -0.831 0 -1.504 -0.669 -1.504 -1.5 0 -0.826 0.674 -1.5 1.504 -1.5 0.826 0 1.496 0.674 1.496 1.5" style="fill:#ec86ab"/>
 <path d="m 20 20 0 -7.5 -1 0 0 7.5 z" style="fill:#ec86ab"/>
 <path d="m 18 12.5 c 0 -0.831 0.674 -1.5 1.5 -1.5 0.826 0 1.5 0.669 1.5 1.5 c 0 0.826 -0.674 1.5 -1.5 1.5 -0.826 0 -1.5 -0.674 -1.5 -1.5" style="fill:#ec86ab"/>
</svg>
